optimized/line/gift-2.svg

<svg xmlns="http://www.w3.org/2000/svg" fill="currentColor" viewBox="0 0 24 24" aria-hidden="true">
  <path d="M14.505 2.003a3.5 3.5 0 013.163 5h3.337a1 1 0 011 1v4a1 1 0 01-1 1h-1v8a1 1 0 01-1 1h-14a1 1 0 01-1-1v-8h-1a1 1 0 01-1-1v-4a1 1 0 011-1h3.337a3.5 3.5 0 015.664-3.95 3.48 3.48 0 012.499-1.05zm3.5 11h-12v7h12v-7zm2-4h-16v2h16v-2zm-10.5-5a1.5 1.5 0 00-.145 2.993l.145.007h1.5v-1.5A1.5 1.5 0 009.649 4.01l-.144-.007zm5 0l-.145.007a1.5 1.5 0 00-1.348 1.348l-.007.145v1.5h1.5l.144-.007a1.5 1.5 0 000-2.986l-.144-.007z"/>
</svg>

<svg xmlns="http://www.w3.org/2000/svg" viewBox="0 0 24 24" aria-hidden="true">
  <path fill="none" d="M0 0h24v24H0z"/>
  <path d="M14.5 2a3.5 3.5 0 013.163 5.001L21 7a1 1 0 011 1v4a1 1 0 01-1 1h-1v8a1 1 0 01-1 1H5a1 1 0 01-1-1v-8H3a1 1 0 01-1-1V8a1 1 0 011-1l3.337.001a3.5 3.5 0 015.664-3.95A3.48 3.48 0 0114.5 2zM18 13H6v7h12v-7zm2-4H4v2h16V9zM9.5 4a1.5 1.5 0 00-.144 2.993L9.5 7H11V5.5a1.5 1.5 0 00-1.356-1.493L9.5 4zm5 0l-.144.007a1.5 1.5 0 00-1.35 1.349L13 5.5V7h1.5l.144-.007a1.5 1.5 0 000-2.986L14.5 4z"/>
</svg>
